X: 71
T:I've Lost My Love And I Care Not. JBi.70
M:C|
L:1/8
Q:160
S:James Biggins MS, Leeds, 1779.
R:Reel
O:England
A:Yorkshire
N:Mr Biggins seems to have got a bit fed up with key signatures around
N:here.This ones a bit odd anyway, whatever you put it in..CGP...
Z:vmp.Nick Barber & Chris Partington..
K:A
"Key 5 flats in ms,see note"\
 B|Bcce dBGB|cAAa g2e2|Bcce dBGB|cAAa g2e2||!
a2|gece dBGa|geca g2e2|gece|dBGe|cAca g2e2||
